images/company4.svg

<svg width="222" height="40" viewBox="0 0 222 40" fill="none" xmlns="http://www.w3.org/2000/svg">
<g id="Frame" clip-path="url(#clip0_282_1449)">
<g id="Clip path group">
<mask id="mask0_282_1449" style="mask-type:luminance" maskUnits="userSpaceOnUse" x="0" y="0" width="222" height="40">
<g id="a">
<path id="Vector" d="M0.128906 0H221.947V40H0.128906V0Z" fill="white"/>
</g>
</mask>
<g mask="url(#mask0_282_1449)">
<g id="Group">
<path id="Vector_2" d="M47.238 12.3636C45.7613 12.3716 44.3078 12.7321 42.9985 13.4152C41.6892 14.0983 40.562 15.0842 39.7107 16.2909L39.2198 16.9455L38.7653 16.2909C37.9025 15.0773 36.7632 14.0866 35.4417 13.4005C34.1201 12.7145 32.6543 12.3528 31.1653 12.3455C26.438 12.3455 24.4198 15.9455 24.4198 15.9455V12.3455H21.838V39.2909H24.4562V21.8182C24.4465 20.0178 25.1512 18.2871 26.4157 17.0056C27.6802 15.724 29.4013 14.9962 31.2016 14.9818C34.9107 14.9818 37.9471 18.0727 37.9471 21.8727V39.3273H40.5107V21.8182C40.5059 20.9252 40.6771 20.04 41.0144 19.2132C41.3517 18.3863 41.8486 17.634 42.4767 16.9992C43.1047 16.3644 43.8517 15.8595 44.6749 15.5133C45.4981 15.1672 46.3814 14.9866 47.2744 14.9818C50.9835 14.9818 54.0016 18.0727 54.0016 21.8727V39.3273H56.5834V21.8182C56.5834 16.6182 52.3653 12.3636 47.2198 12.3636M73.6562 37.3636C70.7033 37.3348 67.8826 36.1354 65.8134 34.0287C63.7442 31.9219 62.5956 29.0801 62.6198 26.1273C62.6198 19.9455 67.5653 14.9455 73.6562 14.9455C76.6042 14.9695 79.4221 16.1624 81.4914 18.2623C83.5606 20.3622 84.7119 23.1974 84.6925 26.1455C84.6925 32.3273 79.7289 37.3636 73.6562 37.3636ZM84.6925 17.9091L83.6744 16.8182C82.4081 15.416 80.8629 14.2939 79.1377 13.5237C77.4125 12.7535 75.5455 12.3521 73.6562 12.3455C70.0186 12.3743 66.5412 13.8458 63.9878 16.4367C61.4344 19.0276 60.0138 22.526 60.038 26.1636C60.038 33.8 66.1471 39.9636 73.6562 39.9636C77.438 39.9636 81.1107 38.3273 83.6744 35.5091L84.6925 34.3818V39.2909H87.2562V12.3273H84.6925V17.9091ZM124.002 12.3636C121.111 12.3636 118.238 13.5273 116.093 15.5818L115.111 16.5273V0H112.547V39.2909H115.165V24C115.165 19.0182 119.165 14.9818 124.038 14.9818C128.947 14.9818 132.947 19.0545 132.947 24.0364V39.3091H135.493V24C135.497 20.9377 134.289 17.9981 132.132 15.8243C129.976 13.6504 127.046 12.4192 123.983 12.4M163.911 26.1636C163.911 32.3455 158.947 37.4 152.874 37.4C151.412 37.3881 149.965 37.0879 148.619 36.5166C147.272 35.9452 146.051 35.1139 145.026 34.0703C144.001 33.0267 143.192 31.7911 142.645 30.4344C142.098 29.0777 141.824 27.6264 141.838 26.1636C141.828 24.7002 142.108 23.2493 142.661 21.8942C143.214 20.5392 144.029 19.3068 145.06 18.2677C146.09 17.2287 147.316 16.4035 148.666 15.8396C150.017 15.2757 151.465 14.9842 152.929 14.9818C158.565 14.9818 163.402 19.4545 163.911 25.1636V26.1455V26.1636ZM152.856 12.3636C149.074 12.3636 145.402 14 142.838 16.8727L141.82 17.9818V0.0363636H139.256V39.3091H141.874V34.4L142.893 35.5273C144.162 36.9299 145.711 38.0522 147.439 38.8223C149.167 39.5925 151.037 39.9936 152.929 40C156.568 39.9664 160.045 38.4909 162.598 35.8971C165.151 33.3033 166.571 29.8029 166.547 26.1636C166.547 18.5273 160.42 12.3636 152.874 12.3636M183.347 37.4C180.394 37.3712 177.574 36.1717 175.504 34.065C173.435 31.9583 172.286 29.1165 172.311 26.1636C172.299 24.7041 172.575 23.2566 173.124 21.904C173.672 20.5514 174.482 19.3205 175.508 18.2816C176.533 17.2428 177.753 16.4166 179.098 15.8504C180.444 15.2841 181.888 14.9889 183.347 14.9818C186.294 15.0106 189.109 16.2051 191.177 18.3039C193.245 20.4028 194.398 23.2352 194.383 26.1818C194.383 32.3636 189.42 37.4 183.347 37.4ZM183.347 12.3818C179.71 12.4154 176.234 13.8915 173.684 16.4858C171.134 19.0802 169.718 22.5806 169.747 26.2182C169.747 33.8545 175.838 40.0182 183.347 40.0182C186.983 39.9798 190.456 38.5022 193.005 35.9089C195.554 33.3156 196.971 29.818 196.947 26.1818C196.947 18.5455 190.838 12.3818 183.347 12.3818ZM206.82 20.4545L200.311 12.3636H196.965L205.111 22.5455L206.802 20.4364L206.82 20.4545ZM210.62 25.1455L220.856 12.3818H217.511L211.002 20.4364L210.874 20.6182L206.911 25.5273L195.893 39.2909H199.238L208.947 27.2545L218.583 39.2909H221.947L210.62 25.1455ZM99.6925 24.2727C96.6925 23.7273 93.9653 21.9455 93.9653 19.6727C93.9653 17.0727 96.6562 14.9455 99.7107 14.9455C102.747 14.9455 105.438 16.8727 105.402 19.6364H108.256C108.256 15.6 104.438 12.3636 99.6744 12.3636C94.9471 12.3636 91.0925 15.6364 91.0925 19.6364C91.0925 24.7273 96.1834 26.3091 99.638 26.8727C103.329 27.4909 106.074 28.9818 106.074 32.1636C106.074 35.0727 103.074 37.3636 99.6744 37.3636C96.2925 37.3636 93.6016 35.1091 93.6016 32.1091H90.7107C90.7107 36.4545 94.5835 39.9636 99.6744 39.9636C104.765 39.9636 108.893 36.4545 108.893 32.1091C108.893 26.1455 103.202 24.9091 99.6744 24.2909M9.09254 24.2727C6.09254 23.7273 3.36527 21.9455 3.36527 19.6727C3.36527 17.0727 6.038 14.9455 9.09254 14.9455C12.1471 14.9455 14.8562 16.8727 14.7835 19.6364H17.6744C17.6744 15.6 13.8198 12.3636 9.09254 12.3636C4.34709 12.3636 0.492543 15.6364 0.492543 19.6364C0.492543 24.7273 5.58345 26.3091 9.01981 26.8727C12.7289 27.4909 15.4562 28.9818 15.4562 32.1636C15.4562 35.0727 12.4562 37.3636 9.07436 37.3636C5.67436 37.3636 2.98345 35.1091 2.98345 32.1091H0.128906C0.128906 36.4545 4.00163 39.9636 9.09254 39.9636C14.1835 39.9636 18.2925 36.4545 18.2925 32.1091C18.2925 26.1455 12.6198 24.9091 9.09254 24.2909V24.2727Z" fill="white"/>
</g>
</g>
</g>
</g>
<defs>
<clipPath id="clip0_282_1449">
<rect width="221.818" height="40" fill="white" transform="translate(0.128906)"/>
</clipPath>
</defs>
</svg>

<svg width="222" height="40" fill="none" xmlns="http://www.w3.org/2000/svg"><g clip-path="url(#a)"><mask id="b" style="mask-type:luminance" maskUnits="userSpaceOnUse" x="0" y="0" width="222" height="40"><path d="M.129 0h221.818v40H.129V0Z" fill="#fff"/></mask><g mask="url(#b)"><path d="M47.238 12.364a9.274 9.274 0 0 0-7.527 3.927l-.491.654-.455-.654a9.382 9.382 0 0 0-7.6-3.946c-4.727 0-6.745 3.6-6.745 3.6v-3.6h-2.582v26.946h2.618V21.818a6.8 6.8 0 0 1 6.746-6.836c3.709 0 6.745 3.09 6.745 6.89v17.455h2.564V21.818a6.8 6.8 0 0 1 6.763-6.836c3.71 0 6.728 3.09 6.728 6.89v17.455h2.581V21.818c0-5.2-4.218-9.454-9.363-9.454m26.436 25A11.145 11.145 0 0 1 62.62 26.127c0-6.181 4.945-11.181 11.036-11.181a11.127 11.127 0 0 1 11.036 11.2c0 6.181-4.963 11.218-11.036 11.218Zm11.036-19.455-1.018-1.09a13.563 13.563 0 0 0-10.018-4.473 13.727 13.727 0 0 0-13.618 13.818c0 7.636 6.11 13.8 13.618 13.8 3.782 0 7.455-1.637 10.018-4.455l1.018-1.127v4.909h2.564V12.327h-2.564v5.582Zm39.31-5.545c-2.891 0-5.764 1.163-7.909 3.218l-.982.945V0h-2.564v39.29h2.618V24c0-4.982 4-9.018 8.873-9.018 4.909 0 8.909 4.073 8.909 9.054V39.31h2.546V24a11.585 11.585 0 0 0-11.51-11.6m39.928 13.764c0 6.181-4.964 11.236-11.037 11.236a11.126 11.126 0 0 1-11.036-11.236 11.1 11.1 0 0 1 3.222-7.896 11.105 11.105 0 0 1 7.869-3.286c5.636 0 10.473 4.473 10.982 10.182v1Zm-11.055-13.8c-3.782 0-7.454 1.636-10.018 4.509l-1.018 1.109V.036h-2.564V39.31h2.618V34.4l1.019 1.127A13.592 13.592 0 0 0 152.929 40a13.745 13.745 0 0 0 13.618-13.836c0-7.637-6.127-13.8-13.673-13.8M183.347 37.4a11.147 11.147 0 0 1-11.036-11.236 11.083 11.083 0 0 1 3.197-7.882 11.086 11.086 0 0 1 7.839-3.3 11.145 11.145 0 0 1 11.036 11.2c0 6.182-4.963 11.218-11.036 11.218Zm0-25.018a13.728 13.728 0 0 0-13.6 13.836c0 7.637 6.091 13.8 13.6 13.8a13.746 13.746 0 0 0 13.6-13.836c0-7.636-6.109-13.8-13.6-13.8Zm23.473 8.072-6.509-8.09h-3.346l8.146 10.181 1.691-2.109.018.018Zm3.8 4.691 10.236-12.763h-3.345l-6.509 8.054-.128.182-3.963 4.91-11.018 13.763h3.345l9.709-12.036 9.636 12.036h3.364L210.62 25.146Zm-110.928-.872c-3-.546-5.727-2.328-5.727-4.6 0-2.6 2.691-4.727 5.746-4.727 3.036 0 5.727 1.927 5.691 4.69h2.854c0-4.036-3.818-7.272-8.582-7.272-4.727 0-8.582 3.272-8.582 7.272 0 5.091 5.091 6.673 8.546 7.237 3.691.618 6.436 2.109 6.436 5.29 0 2.91-3 5.2-6.4 5.2-3.382 0-6.072-2.254-6.072-5.254H90.71c0 4.346 3.873 7.855 8.963 7.855 5.091 0 9.219-3.51 9.219-7.855 0-5.964-5.691-7.2-9.219-7.818m-90.581-.018c-3-.546-5.728-2.328-5.728-4.6 0-2.6 2.673-4.727 5.728-4.727 3.054 0 5.763 1.927 5.69 4.69h2.891c0-4.036-3.854-7.272-8.581-7.272-4.746 0-8.6 3.272-8.6 7.272 0 5.091 5.09 6.673 8.527 7.237 3.709.618 6.436 2.109 6.436 5.29 0 2.91-3 5.2-6.382 5.2-3.4 0-6.09-2.254-6.09-5.254H.128c0 4.346 3.873 7.855 8.964 7.855 5.09 0 9.2-3.51 9.2-7.855 0-5.964-5.673-7.2-9.2-7.818v-.018Z" fill="#fff"/></g></g><defs><clipPath id="a"><path fill="#fff" transform="translate(.129)" d="M0 0h221.818v40H0z"/></clipPath></defs></svg>
